.local/share/icons/Gruvbox-Plus-Dark/panel/24/odrive-tray-sync.svg

<svg width="24" height="24" version="1.1" xmlns="http://www.w3.org/2000/svg">
  <defs>
    <style id="current-color-scheme" type="text/css">.ColorScheme-Text { color:#ebdbb2; } .ColorScheme-Highlight { color:#458588; } .ColorScheme-NeutralText { color:#fe8019; } .ColorScheme-PositiveText { color:#689d6a; } .ColorScheme-NegativeText { color:#fb4934; }</style>
  </defs>
  <path class="ColorScheme-Text" d="m9 4 5.305 9.643c0.9455-1.043 2.287-1.64 3.695-1.643 0.7143 1.45e-4 1.42 0.1533 2.07 0.4492l-5.07-8.449zm-0.5 1-5.5 10 3 5 5.5-9.5zm9.5 8c-2.209 0-4 1.791-4 4 0 2.209 1.791 4 4 4 2.209 0 4-1.791 4-4 0-2.209-1.791-4-4-4zm0 1.143c1.578 0 2.857 1.279 2.857 2.857h-0.9531c-4.1e-4 -1.051-0.8529-1.904-1.904-1.904zm-4.58 0.8633-3.42 0.0039-3 4.99h7.016c-0.6547-0.8635-1.011-1.916-1.016-3 0.0016-0.6865 0.1445-1.365 0.4199-1.994zm1.723 1.994h0.9531c4.1e-4 1.051 0.8529 1.904 1.904 1.904v0.9531c-1.578 0-2.857-1.279-2.857-2.857z" fill="currentColor"/>
</svg>

<svg xmlns="http://www.w3.org/2000/svg" width="24" height="24" version="1.1">
 <defs>
  <style id="current-color-scheme" type="text/css">
   .ColorScheme-Text { color:#ebdbb2; } .ColorScheme-Highlight { color:#458588; }
  </style>
 </defs>
 <path style="fill:currentColor" class="ColorScheme-Text" d="m 9,4 5.302734,9.642578 A 5,5 0 0 1 18,12 5,5 0 0 1 20.072266,12.455078 L 15,4 Z M 8.5,5 3,15 l 3,5 5.5,-9.5 z m 9.5,8 c -2.2091,0 -4,1.7909 -4,4 0,2.2091 1.7909,4 4,4 2.2091,0 4,-1.7909 4,-4 0,-2.2091 -1.7909,-4 -4,-4 z m 0,1 a 3,3 0 0 1 3,3 H 20 A 2,2 0 0 0 18,15 Z M 13.416016,15.005859 10,15.009766 7,20 h 7.007812 A 5,5 0 0 1 13,17 5,5 0 0 1 13.416016,15.005859 Z M 15,17 h 1 a 2,2 0 0 0 2,2 v 1 a 3,3 0 0 1 -3,-3 z"/>
</svg>
